assets/icons/github.svg

<?xml version="1.0" encoding="UTF-8"?>
<svg xmlns="http://www.w3.org/2000/svg" xmlns:xlink="http://www.w3.org/1999/xlink" width="24pt" height="24pt" viewBox="0 0 24 24" version="1.1">
<g id="surface1167481">
<path style=" stroke:none;fill-rule:nonzero;fill:rgb(26.274511%,25.490198%,56.470591%);fill-opacity:1;" d="M 10.898438 2.101562 C 6.300781 2.601562 2.601562 6.300781 2.101562 10.800781 C 1.601562 15.5 4.300781 19.699219 8.398438 21.300781 C 8.699219 21.398438 9 21.199219 9 20.800781 L 9 19.199219 C 9 19.199219 8.601562 19.300781 8.101562 19.300781 C 6.699219 19.300781 6.101562 18.101562 6 17.398438 C 5.898438 17 5.699219 16.699219 5.398438 16.398438 C 5.101562 16.300781 5 16.300781 5 16.199219 C 5 16 5.300781 16 5.398438 16 C 6 16 6.5 16.699219 6.699219 17 C 7.199219 17.800781 7.800781 18 8.101562 18 C 8.5 18 8.800781 17.898438 9 17.800781 C 9.101562 17.101562 9.398438 16.398438 10 16 C 7.699219 15.5 6 14.199219 6 12 C 6 10.898438 6.5 9.800781 7.199219 9 C 7.101562 8.800781 7 8.300781 7 7.601562 C 7 7.199219 7 6.601562 7.300781 6 C 7.300781 6 8.699219 6 10.101562 7.300781 C 10.601562 7.101562 11.300781 7 12 7 C 12.699219 7 13.398438 7.101562 14 7.300781 C 15.300781 6 16.800781 6 16.800781 6 C 17 6.601562 17 7.199219 17 7.601562 C 17 8.398438 16.898438 8.800781 16.800781 9 C 17.5 9.800781 18 10.800781 18 12 C 18 14.199219 16.300781 15.5 14 16 C 14.601562 16.5 15 17.398438 15 18.300781 L 15 20.898438 C 15 21.199219 15.300781 21.5 15.699219 21.398438 C 19.398438 19.898438 22 16.300781 22 12.101562 C 22 6.101562 16.898438 1.398438 10.898438 2.101562 Z M 10.898438 2.101562 "/>
</g>
</svg>

<svg xmlns="http://www.w3.org/2000/svg" width="32" height="32" viewBox="0 0 24 24"><path d="M10.898 2.102c-4.597.5-8.296 4.199-8.796 8.699-.5 4.699 2.199 8.898 6.296 10.5.301.097.602-.102.602-.5v-1.602s-.398.102-.898.102c-1.403 0-2-1.2-2.102-1.903-.102-.398-.3-.699-.602-1C5.102 16.301 5 16.301 5 16.2 5 16 5.3 16 5.398 16 6 16 6.5 16.7 6.7 17c.5.8 1.102 1 1.403 1 .398 0 .699-.102.898-.2.102-.698.398-1.402 1-1.8-2.3-.5-4-1.8-4-4 0-1.102.5-2.2 1.2-3-.098-.2-.2-.7-.2-1.398 0-.403 0-1 .3-1.602 0 0 1.4 0 2.802 1.3.5-.198 1.199-.3 1.898-.3.7 0 1.398.102 2 .3C15.3 6 16.8 6 16.8 6c.2.602.2 1.2.2 1.602 0 .796-.102 1.199-.2 1.398.7.8 1.2 1.8 1.2 3 0 2.2-1.7 3.5-4 4 .602.5 1 1.398 1 2.3v2.598c0 .301.3.602.7.5 3.698-1.5 6.3-5.097 6.3-9.296 0-6-5.102-10.704-11.102-10zm0 0" fill="#434190"/></svg>
